source/img/fast-icon.svg

<svg width="60" height="60" viewBox="0 0 60 60" fill="none" xmlns="http://www.w3.org/2000/svg">
<rect width="60" height="60" fill="#68B738"/>
<path d="M23.1206 15C22.0538 15 22.0538 16.5831 23.1206 16.5831H29.7878V18.1873C22.9606 18.62 17.5627 24.4142 17.5627 31.4854C17.5627 35.4959 19.3122 39.1159 22.0751 41.5539C22.5552 41.976 22.6192 42.7254 22.1818 43.1897L20.6457 44.7412C19.8989 45.4272 21.0084 46.4931 21.6804 45.7438L23.686 43.7069C24.038 43.3692 24.5607 43.2847 24.9981 43.4958C26.7228 44.3397 28.6191 44.784 30.5432 44.795C32.4673 44.8059 34.3687 44.3833 36.1031 43.5591C36.5298 43.348 37.0632 43.4325 37.4045 43.7702L39.3461 45.7438C40.0288 46.377 41.0102 45.4272 40.3915 44.7412L38.9407 43.2636C38.4926 42.8098 38.5567 42.0605 39.0474 41.6277C40.5031 40.3585 41.6674 38.7959 42.4623 37.0447C43.2571 35.2936 43.6641 33.3944 43.6558 31.4748C43.6558 24.4036 38.226 18.5989 31.388 18.1873V16.5831H38.0553C39.122 16.5831 39.122 15 38.0553 15H23.1206ZM19.0029 31.4748C19.0029 24.9419 24.198 19.6543 30.6093 19.6543C37.0098 19.6543 42.205 24.9419 42.205 31.4748C42.205 38.0183 37.0098 43.3164 30.6093 43.3164C24.2087 43.3164 19.0029 38.0183 19.0029 31.4748ZM29.7985 23.3799C29.7985 22.2823 31.4627 22.2823 31.4627 23.3799V32.0131C31.4627 32.237 31.3728 32.4517 31.2127 32.6101C31.0527 32.7684 30.8356 32.8574 30.6093 32.8574C30.3961 32.8574 30.1915 32.7743 30.0397 32.6262C29.888 32.478 29.8013 32.2767 29.7985 32.0658V23.3799ZM24.8061 25.9973C25.1144 25.9973 25.4102 25.8761 25.6283 25.6603C25.8463 25.4446 25.9688 25.152 25.9688 24.8469C25.9688 24.5418 25.8463 24.2492 25.6283 24.0334C25.4102 23.8177 25.1144 23.6965 24.8061 23.6965C24.5183 23.7239 24.2511 23.8563 24.0567 24.0681C23.8622 24.2798 23.7545 24.5556 23.7545 24.8416C23.7545 25.1277 23.8622 25.4034 24.0567 25.6152C24.2511 25.8269 24.5183 25.9593 24.8061 25.9867V25.9973ZM36.4018 25.9973C36.7102 25.9973 37.0059 25.8761 37.224 25.6603C37.4421 25.4446 37.5646 25.152 37.5646 24.8469C37.5646 24.5418 37.4421 24.2492 37.224 24.0334C37.0059 23.8177 36.7102 23.6965 36.4018 23.6965C36.114 23.7239 35.8468 23.8563 35.6524 24.0681C35.458 24.2798 35.3503 24.5556 35.3503 24.8416C35.3503 25.1277 35.458 25.4034 35.6524 25.6152C35.8468 25.8269 36.114 25.9593 36.4018 25.9867V25.9973ZM25.9688 38.5882C25.9688 40.1185 23.6433 40.1185 23.6433 38.5882C23.6433 37.0579 25.9688 37.0579 25.9688 38.5882ZM30.6093 42.0288C30.7706 42.0441 30.9334 42.0259 31.0872 41.9754C31.241 41.9248 31.3824 41.843 31.5024 41.7352C31.6223 41.6273 31.7182 41.4959 31.7838 41.3493C31.8494 41.2026 31.8833 41.044 31.8833 40.8837C31.8833 40.7233 31.8494 40.5648 31.7838 40.4181C31.7182 40.2715 31.6223 40.14 31.5024 40.0322C31.3824 39.9244 31.241 39.8426 31.0872 39.792C30.9334 39.7414 30.7706 39.7232 30.6093 39.7386C30.3215 39.7659 30.0543 39.8984 29.8599 40.1101C29.6654 40.3219 29.5577 40.5976 29.5577 40.8837C29.5577 41.1697 29.6654 41.4455 29.8599 41.6572C30.0543 41.869 30.3215 42.0014 30.6093 42.0288ZM22.4912 31.6437C22.5067 31.8033 22.4883 31.9643 22.4372 32.1165C22.3861 32.2687 22.3034 32.4086 22.1944 32.5273C22.0854 32.646 21.9525 32.7408 21.8043 32.8057C21.6561 32.8706 21.4958 32.9041 21.3337 32.9041C21.1717 32.9041 21.0114 32.8706 20.8632 32.8057C20.7149 32.7408 20.5821 32.646 20.4731 32.5273C20.3641 32.4086 20.2814 32.2687 20.2303 32.1165C20.1792 31.9643 20.1608 31.8033 20.1763 31.6437C20.204 31.3589 20.3378 31.0946 20.5518 30.9023C20.7659 30.7099 21.0446 30.6033 21.3337 30.6033C21.6229 30.6033 21.9016 30.7099 22.1156 30.9023C22.3296 31.0946 22.4635 31.3589 22.4912 31.6437ZM39.8794 32.794C40.0408 32.8094 40.2036 32.7912 40.3574 32.7406C40.5112 32.6901 40.6526 32.6082 40.7726 32.5004C40.8925 32.3926 40.9884 32.2611 41.054 32.1145C41.1196 31.9679 41.1535 31.8093 41.1535 31.6489C41.1535 31.4886 41.1196 31.33 41.054 31.1834C40.9884 31.0367 40.8925 30.9053 40.7726 30.7975C40.6526 30.6896 40.5112 30.6078 40.3574 30.5573C40.2036 30.5067 40.0408 30.4885 39.8794 30.5038C39.5916 30.5312 39.3245 30.6637 39.13 30.8754C38.9356 31.0871 38.8279 31.3629 38.8279 31.6489C38.8279 31.935 38.9356 32.2108 39.13 32.4225C39.3245 32.6342 39.5916 32.7667 39.8794 32.794ZM37.5646 38.5987C37.5646 40.1185 35.239 40.1185 35.239 38.5882C35.239 37.0579 37.5646 37.0579 37.5646 38.5882V38.5987Z" fill="white"/>
</svg>

<svg xmlns="http://www.w3.org/2000/svg" width="60" height="60" fill="none">
  <path fill="#68B738" d="M0 0h60v60H0z"/>
  <path fill="#ffffff" d="M23.12 15c-1.07 0-1.07 1.58 0 1.58h6.67v1.6a13.21 13.21 0 0 0-12.23 13.3c0 4.02 1.75 7.64 4.52 10.07.48.43.54 1.18.1 1.64l-1.53 1.55c-.75.69.36 1.75 1.03 1l2-2.03c.36-.34.88-.43 1.32-.21a12.79 12.79 0 0 0 11.1.06c.43-.21.96-.13 1.3.21l1.95 1.97c.68.64 1.66-.31 1.04-1l-1.45-1.48c-.45-.45-.38-1.2.1-1.63a13.47 13.47 0 0 0 4.62-10.16 13.2 13.2 0 0 0-12.27-13.28v-1.6h6.67c1.06 0 1.06-1.59 0-1.59H23.12ZM19 31.47c0-6.53 5.2-11.82 11.6-11.82 6.41 0 11.6 5.3 11.6 11.82 0 6.55-5.19 11.85-11.6 11.85-6.4 0-11.6-5.3-11.6-11.85Zm10.8-8.09c0-1.1 1.66-1.1 1.66 0v8.63c0 .23-.09.44-.25.6a.86.86 0 0 1-.6.25.82.82 0 0 1-.57-.23.8.8 0 0 1-.24-.56v-8.69Zm-5 2.62c.31 0 .61-.12.83-.34a1.14 1.14 0 0 0-.82-1.96c-.3.02-.56.16-.75.37a1.14 1.14 0 0 0 .75 1.92Zm11.6 0c.31 0 .6-.12.82-.34a1.14 1.14 0 0 0-.82-1.96 1.14 1.14 0 0 0 0 2.29ZM25.97 38.59c0 1.53-2.33 1.53-2.33 0s2.33-1.53 2.33 0Zm4.64 3.44a1.18 1.18 0 0 0 1.17-.68 1.14 1.14 0 0 0-.7-1.56 1.17 1.17 0 0 0-1.22.32 1.14 1.14 0 0 0 .75 1.92Zm-8.12-10.39a1.14 1.14 0 0 1-.69 1.17 1.17 1.17 0 0 1-1.57-.7 1.14 1.14 0 0 1 .32-1.2 1.17 1.17 0 0 1 1.94.73Zm17.39 1.15a1.17 1.17 0 0 0 1.17-.68 1.14 1.14 0 0 0-.7-1.55 1.17 1.17 0 0 0-1.22.32 1.14 1.14 0 0 0 .75 1.91Zm-2.32 5.8c0 1.53-2.32 1.53-2.32 0s2.32-1.53 2.32 0Z"/>
</svg>
